media/ico/ico_phonelinkring.svg

<svg width="96" height="96" viewBox="0 0 96 96" fill="none" xmlns="http://www.w3.org/2000/svg">
<path d="M28 4C23.58 4 20 7.58 20 12V84C20 88.42 23.58 92 28 92H68C72.42 92 76 88.42 76 84V76L68 68H28V28H68L76 20V12C76 7.58 72.42 4 68 4H28ZM28 12H68V20H28V12ZM82.625 25.375L76.9688 31.0312C86.3247 40.3912 86.3247 55.6087 76.9688 64.9688L82.625 70.625C95.101 58.149 95.101 37.851 82.625 25.375ZM71.3125 36.6875L65.6562 42.3438C67.1683 43.8558 68 45.864 68 48C68 50.136 67.1683 52.1442 65.6562 53.6562L71.3125 59.3125C74.3365 56.2925 76 52.272 76 48C76 43.728 74.3365 39.7075 71.3125 36.6875ZM28 76H68V84H28V76Z" fill="#4F4AFF"/>
</svg>

<?xml version="1.0" encoding="utf-8"?>
<!-- Generator: Adobe Illustrator 28.0.0, SVG Export Plug-In . SVG Version: 6.00 Build 0)  -->
<svg version="1.1" id="Layer_1" xmlns="http://www.w3.org/2000/svg" xmlns:xlink="http://www.w3.org/1999/xlink" x="0px" y="0px"
	 viewBox="0 0 96 96" style="enable-background:new 0 0 96 96;" xml:space="preserve">
<style type="text/css">
	.st0{fill:#B3B3B3;}
</style>
<path class="st0" d="M28,4c-4.4,0-8,3.6-8,8v72c0,4.4,3.6,8,8,8h40c4.4,0,8-3.6,8-8v-8l-8-8H28V28h40l8-8v-8c0-4.4-3.6-8-8-8H28z
	 M28,12h40v8H28V12z M82.6,25.4L77,31c9.4,9.4,9.4,24.6,0,33.9l5.7,5.7C95.1,58.1,95.1,37.9,82.6,25.4z M71.3,36.7l-5.7,5.7
	c1.5,1.5,2.3,3.5,2.3,5.7s-0.8,4.1-2.3,5.7l5.7,5.7c3-3,4.7-7,4.7-11.3S74.3,39.7,71.3,36.7z M28,76h40v8H28V76z"/>
</svg>
